X: 753
T: A Visit To Ireland
M:6/8
L:1/8
B:O'Neill's 753
R:Jig
Z:"Transcribed by Bob Safranek, rjs@gsp.org"
K:G
   B | ded dBG | Bdd def | gfe dcB | cAA A2 B/c/ |
       ded dBG | Bdd def | gfg ABc | BGG G2     :|
|: d | gfg aga | bag fed | gfe dcB | cAA A2 d    |
       gfg aga | bag fed | gfg ABc | BGG G2     :|


